X:243
T:Virgin's Garland (Old)
%%VWML:SBG-1-2-475-0
F:http://www.vwml.org/record/SBG/1/2/475
Z:Original Sibelius transcriptions by M. & S. Graebe
M:3/4
I:linebreak $
K:F
V:1 treble nm="P1"
V:1
 FFF | A3 FEF | GE !fermata!C FFF | A3 G/F/ EF | G3 GAB |$ c3 BAG | FE/D/ !fermata!C ABc | %7
 d/d/d cB AG | F3 x x2 | 
T:Virgin's Garland (Langdon)
F:http://www.vwml.org/record/SBG/1/2/475
Z:Original Sibelius transcriptions by M. & S. Graebe
M:3/4
I:linebreak $
K:F
V:1 treble nm="P1"
V:1
 FFF | A3 FEF | GE !fermata!C FFF | A3 F/F/ EF | G3 GAB |$ c3 def | d2 c ABA | c3 BAG | F3 FED | %9
w: ||||||* * until _ my|in'cent _ heart he|won until _ my|
 E3 EDE | F3 x x2 | %11
w: in'cent _ heart he|won|T:Virgin's Garland (Langdon)
F:http://www.vwml.org/record/SBG/1/2/475
Z:Original Sibelius transcriptions by M. & S. Graebe
M:3/4
I:linebreak $
K:F
V:1 treble nm="P1"
V:1
 FFF | A3 FEF | GE !fermata!C FFF | A3 F/F/ EF | G3 GAB |$ c3 def | d2 c ABA | c3 BAG | F3 FED | %9
w: ||||||* * until _ my|in'cent _ heart he|won until _ my|
 E3 EDE | F3 x x2 | %11
w: in'cent _ heart he|won|
T:Virgin's Garland (Sandry)
F:http://www.vwml.org/record/SBG/1/2/475
Z:Original Sibelius transcriptions by M. & S. Graebe
M:3/4
I:linebreak $
K:G
V:1 treble nm="P1"
V:1
 d^cd | f3 d^cd | e2 A2 z2 |[M:6/8] d"^[*this F given as a crotchet in MS. - Ed.]"dd"^*" f d>d | %4
 ddd f2 d>d |$ d^cd e3 | efg a2 g | fed ^cBA | fga bag | f2 e d3 | %10

